X:1
T:Se la vostra partita
T:Luca Marenzio
T:Source : Il quinto libro delle Villanelle a tre voci---Venetia---Herede di G.Scotto---1587. Editor : André Vierendeels (09/05/17).
T:Notes : Original clefs : G2, C1, F3 Editorial accidentals above the staff Music collected by Attilio Gualtieri
T:Se la vostra partita
T:©
T:©
C:Luca Marenzio
Z:©
%%score [ 1 2 3 ]
L:1/8
Q:1/4=120
M:4/4
K:F
V:1 treble nm="Soprano 1" snm="S 1"
V:2 treble nm="Soprano 2" snm="S 2"
V:3 treble-8 nm="Tenor" snm="T"
V:1
"^1)" d6 d2 | d4 d2 d2 | _e8 | d4 d2 de | f4 z2 e2 | f2 g2 a4- | a2 f2 e4 | d8 :: z4 G2 AB | %9
w: Se la|vo- stra par-|ti-|ta, dol- ce si-|gnor, mi|die- de tal|_ mar- ti-|re,|ch'io mi pen-|
w: se dal|vo- stro par-|ti-|re, heb- bi di|pian- t'ogn'|hor bag- na-|* to'il vi-|so,|e'l cor da|
 c4 F2 GA | B4 z2 g2 | g3 f/e/ d4 | c4 z2 g2 | f2 d2 f2 f2 | c2 cd e3 f | g3 f/e/ d2 d2 | %16
w: sai, ch'io mi pn-|sai mo-|ri- * * *|re, hor|che tor- na- te|sen- to mu- tar- m'in|al- * * * le-|
w: me, e'l cor da|me di-|vi- * * *|so, hor|ch'a me fa ri-|tor- no lie- to vi-|vo _ _ _ can-|
 d3 c/B/ A2 f2 | f2 e2 d4- | d2 cB A4 | G8 :| %20
w: grez- * * * za'o-|gni tor- men-||to.|
w: tan _ _ _ do|not- t'e gior-||no.|
V:2
"^2)""^1)" B6 B2 | B4 A2 =B2 | c8 | =B4 _B2 Bc | d4 z2 c2 | d2 e2 f2 d2 | ^c2 d4 c2 | d8 :: %8
w: Se la|vo- stra par-|ti-|ta, dol- ce si-|gnor, mi|die- de tal mar-|ti- * *|re,|
w: Di'e- ter-|na pri- ma-|ve-|ra, go- dro co-|glien- do'i|de- si- a- ti|fio- * *|ri,|
 z4 E2 FG | A4 D2 EF | G4 z2 =B2 | =B2 c4 B2 |"^b" c2 _e2 d2 B2 | d2 B2 A2 AB | c2 A2 GFGA | %15
w: ch'io mi pen-|sai, ch'io mi pen-|sai mo-|ri- * *|re, hor che tor-|na- te sen- to mu-|tar- m'in al- * * *|
w: de piu sua-|vi, de piu sua-|vi o-|do- * *|ri, che di ro-|s'e vi- o- le'al ri-|tor- no di _ _ _|
 B2 B2 B3 A/G/ | F4 c4 | d2 c2 B2 AG | ^F2 G4 F2 | G8 :| %20
w: * le- grez- * *|* za'o-|gni tor- men- * *||to.|
w: voi mio s- * *|* bel|so- * * * *||le.|
V:3
"^3)""^1)""^4)" G6 G2 | G4 ^F2 G2 | C8 | G4 G2 Gc | B2 d2 c4 | B4 F2 G2 | A8 | D8 :: G2 AB c4 | %9
w: Se le|vo- stra par-|ti-|ta, dol- ce si-|gnor, mi die-|de tal mar-|ti-|re,|ch'io mi pen- sai,|
w: Dol- c'e|gra- to'Hi- me-|ne-|o, si pu- ra|fe, si gra-|to'a- mor gia|ma-|i,|in al- trui non|
 F2 GA B4 | z2 G2 G4- | G8 |"^b" C2 c2 B2 G2 | B2 B2 F2 FG | A3 B c3 B/A/ | G2 G2 G3 F/E/ | %16
w: ch'io mi pen- sai,|mo- ri-||re, hor che tor-|na- te sen- to mu-|tar- * * * *|* m'in al- * *|
w: in al- trui non|ve- dra-||i, dhe fa ch'e-|ter- na- men- te go-|da il mio _ _|_ ben e _ _|
 D2 F2 F2 F2 | B,6 C2 | D8 | G8 :| %20
w: * le- grez- za'o-|gni tor-|men-|to.|
w: _ ogn'- hor mi|sia pre-|sen-|te.|

